X:1
T:Title
%%score { ( 1 4 ) | ( 2 3 ) }
L:1/8
M:4/4
K:G
V:1 treble nm="Grand Piano"
V:4 treble 
V:2 treble 
V:3 treble 
V:1
 z4 z2[Q:1/4=100] GA | B2 B2 B2 B2 | [Fd]4- [Fd]c[DGB][FA] | [B,EG]2 [B,EG]2 [B,EG]2 [B,EG]2 | %4
 [^DB]4- [DB]A[B,EG][DF] | [G,E]2 [EG]E [G,B,D]2 .[G,DG]2 | [G,CE]2 [EG][CE] [B,D]2 D2 | %7
 D2 D2 FG[FA][GB] | [Ac]4 B2 [DFA]2 | [DGd]2 [EGc][EA] [B,DG]2 .[A,DF]2 |[M:3/4] [B,DG]6 |] %11
V:2
 z4 z2 [G,D]-[G,CD] | [G,DG]2 [G,DG]2 [G,DG]2 [G,DG]2 | z4 z A[K:bass] z C | E,2 E,2 E,2 E,2 | %4
 z4 z F z A, | C,2 z C G,,2 z F | C,2 [C,G,]2 [G,,G,]2 [B,,G,]2 | [D,F,]2 [D,F,]2 DE [D,D]2 | %8
 z4 G2 C,2 | B,,2 z C D,2 z C |[M:3/4] G,,6 |] %11
V:3
 z4 z2 .B,2 | x8 | [D,D]6[K:bass] D,2 | x8 | B,,6 B,,2 | z2 [C,G,]2 z2 B,,2 | x8 | z4 [D,A,]2 z2 | %8
 [D,D]6 z2 | z2 C,2 z2 D,2 |[M:3/4] x6 |] %11
V:4
 x8 | x8 | x8 | x8 | B,6 z2 | x8 | x8 | x8 | x8 | x8 |[M:3/4] x6 |] %11

